X:5060
T:The Old Pitch
M:9/8
R:Slip Jig
L:1/8
Q:180
C:Aidan Crossey
K:D
|: f2d dcd F2G|f2d dcd e3|f2d dcd F2G|B2G c2e d3:||
|:F2A ABc d2e|g2B c2B A3|F2A ABc d2e|g2B cBA d3:||
